public/avatar/body/72.svg

<svg xmlns:xlink="http://www.w3.org/1999/xlink" height="82" width="84.85" xmlns="http://www.w3.org/2000/svg"><g transform="translate(37.4 42.25)"><use height="38" transform="translate(-11.95 -17.45)" width="32.05" xlink:href="#a"/><use height="38.95" transform="translate(-12.45 -17.95)" width="33.05" xlink:href="#b"/><use height="22.8" transform="translate(-21.4 .25)" width="50.85" xlink:href="#c"/></g><defs><path d="M27.35 7.4q2.15 4.15 3.55 8.75 1.45 4.7 1.15 9.5-.35 4.95-4.2 8.1-3.8 3.2-8.75 4.05l-2.6.2q-3.6 0-7.05-1.15-4.65-1.6-7.1-5.5Q-.2 27.4.05 23q.2-4.4 2-9.3Q3.85 8.75 7 5.05 10.1 1.3 14.7.1l1.8-.1q1.9.05 3.7.8 4.75 2.05 7.15 6.6" fill="#fff" fill-rule="evenodd" transform="translate(-.05)" id="d"/><path d="M27.35 7.4Q24.95 2.85 20.2.8 17.55-.3 14.7.1 10.1 1.3 7 5.05q-3.15 3.7-4.95 8.65-1.8 4.9-2 9.3-.25 4.4 2.3 8.35 2.45 3.9 7.1 5.5 4.65 1.55 9.65.95 4.95-.85 8.75-4.05 3.85-3.15 4.2-8.1.3-4.8-1.15-9.5-1.4-4.6-3.55-8.75Z" fill="none" stroke="#402626" stroke-linecap="round" stroke-linejoin="round" transform="translate(.45 .5)" id="e"/><use height="38" width="32.05" xlink:href="#d" id="a"/><use height="38.95" width="33.05" xlink:href="#e" id="b"/><g id="c"><path d="M6.2 15.55q-.1-1.5.3-3.15.8-3.3 3.3-4.1 4-1.25 8-1.5-1 8.35-1.85 9.5-.9 1.1-7.65 2.6l-2.1-3.35M-.05 18.9q-6.75-1.5-7.65-2.6-.55-.7-1.35-4.65L-9.8 7.9l2.65-.25q3.1-.15 5.6.65 4 1.25 3.6 7.25l-2.1 3.35" fill-rule="evenodd" transform="translate(21.4 -.25)"/><path d="m39.7 13.6-.3.3-.25.35-.3.3-.25.35-.95.85-.2.15-.1.15-.8.55-.2.2-.8.5-.2.2-1.05.6-2.2 1-3.55 1-1.25.1-3.65-.05-2.4-.35-2.35-.65-2.2-.95-1.45-.9-1.35-1.05-.75-.8-1.35-1.75" fill="none" stroke="#333" stroke-linecap="round" stroke-linejoin="round" stroke-width=".95"/><path d="m23.2 20.55-2.75.75q-1.1-1.45-1.4-1.4-.05 1.7-.35 1.75-7.7 1.4-12.5 1.4l-11-.65-6.65-.85q-.15-1.6-.5-1.65-1.05 1.3-1.25 1.25-1.75-.5-1.75-1.1 2.85-4.6 2.95-5.9l.05-11.1L-6.1 9.6q6.65 6.5 10.8 5.95 6.6-.9 14.75-12.9l1.2 2.6-.45 2.25q-.6 2.5-.25 5.05.25 1.8 3.25 8" fill-rule="evenodd" transform="translate(21.4 -.25)"/><path d="M8.25 17.05q3.5-.25 5.1-1.4 1.65-1.1 2.9-3.6Q16 15.4 13.5 16.8q-2.5 1.35-5.25.25m-8.5 0Q-3 18.15-5.5 16.8q-1.55-.85-2.3-2.9l-.45-1.85.85 1.4q1 1.5 2 2.2 1.65 1.15 5.15 1.4" fill="#878787" fill-rule="evenodd" transform="translate(21.4 -.25)"/><path d="M28.45 5.05q.3 1.15.1 2.35-1.75-1.55-2.65-1.9-1.4-.5-1.4.55-.15 1.35.9 2.25l-1.95-1.2q-.5-.05-.9.35l-.65.5-1.65.4-1.35-6.5 1.15-.8q1.35-.8 2.45-.8 1.75 0 5.25 1.3l1.7 1.25-4-.1-.8.4 1.8.55q1.8.7 2 1.4m-42.9-3.95q1.75 0 3.6 1.65L-12.2 9.2l-1.65-.4q-.7-.9-1.55-.8-.4.05-1.95 1.2 1.1-.9.9-2.3 0-1.1-1.4-.5-1.15.4-2.65 1.9-.2-1.25.1-2.35.2-.7 2-1.4.95-.35 1.8-.55l-.8-.45-4 .1 1.7-1.2q3.5-1.35 5.25-1.35" fill-rule="evenodd" transform="translate(21.4 -.25)"/><path d="M18.3 6.35q-1.4-.85-1.75-.85h-2.9l2.4-1.75 3.25-.25-1 2.85" fill-rule="evenodd" transform="translate(21.4 -.25)"/><path d="m18.15 4.6-.85-1.5-1.5-1.5 2.75.4q1.35.6 1.1 2.25l-1.1.85-.4-.5m-29.45-.55 3.25.25q.85.35 2.35 1.75h-2.85l-1.75.85-1-2.85" fill-rule="evenodd" transform="translate(21.4 -.25)"/><path d="m-9.3 3.65-1.25 2-1.15-.85q-.25-1.65 1.15-2.25 1.35-.65 2.75-.4l-1.5 1.5" fill-rule="evenodd" transform="translate(21.4 -.25)"/><path d="m-.3 10.55 8.75.1m-7.9 2.5h6.5" fill="none" stroke="#000" stroke-linecap="round" stroke-linejoin="round" transform="translate(21.4 -.25)"/></g></defs></svg>

<?xml version="1.0" encoding="UTF-8" standalone="no"?>
<svg xmlns:xlink="http://www.w3.org/1999/xlink" height="82.0px" width="84.85px" xmlns="http://www.w3.org/2000/svg">
  <g transform="matrix(1.0, 0.0, 0.0, 1.0, 37.4, 42.25)">
    <use height="38.0" transform="matrix(1.0, 0.0, 0.0, 1.0, -11.95, -17.45)" width="32.05" xlink:href="#sprite0"/>
    <use height="38.95" transform="matrix(1.0, 0.0, 0.0, 1.0, -12.45, -17.95)" width="33.05" xlink:href="#sprite1"/>
    <use height="22.8" transform="matrix(1.0, 0.0, 0.0, 1.0, -21.4, 0.25)" width="50.85" xlink:href="#shape2"/>
  </g>
  <defs>
    <g id="sprite0" transform="matrix(1.0, 0.0, 0.0, 1.0, -0.05, 0.0)">
      <use height="38.0" transform="matrix(1.0, 0.0, 0.0, 1.0, 0.05, 0.0)" width="32.05" xlink:href="#shape0"/>
    </g>
    <g id="shape0" transform="matrix(1.0, 0.0, 0.0, 1.0, -0.05, 0.0)">
      <path d="M27.35 7.4 Q29.5 11.55 30.9 16.15 32.35 20.85 32.05 25.65 31.7 30.6 27.85 33.75 24.05 36.95 19.1 37.8 L16.5 38.0 Q12.9 38.0 9.45 36.85 4.8 35.25 2.35 31.35 -0.2 27.4 0.05 23.0 0.25 18.6 2.05 13.7 3.85 8.75 7.0 5.05 10.1 1.3 14.7 0.1 L16.5 0.0 Q18.4 0.05 20.2 0.8 24.95 2.85 27.35 7.4" fill="#ffffff" fill-rule="evenodd" stroke="none"/>
    </g>
    <g id="sprite1" transform="matrix(1.0, 0.0, 0.0, 1.0, 0.45, 0.5)">
      <use height="38.95" transform="matrix(1.0, 0.0, 0.0, 1.0, -0.45, -0.5)" width="33.05" xlink:href="#shape1"/>
    </g>
    <g id="shape1" transform="matrix(1.0, 0.0, 0.0, 1.0, 0.45, 0.5)">
      <path d="M27.35 7.4 Q24.95 2.85 20.2 0.8 17.55 -0.3 14.7 0.1 10.1 1.3 7.0 5.05 3.85 8.75 2.05 13.7 0.25 18.6 0.05 23.0 -0.2 27.4 2.35 31.35 4.8 35.25 9.45 36.85 14.1 38.4 19.1 37.8 24.05 36.95 27.85 33.75 31.7 30.6 32.05 25.65 32.35 20.85 30.9 16.15 29.5 11.55 27.35 7.4 Z" fill="none" stroke="#402626" stroke-linecap="round" stroke-linejoin="round" stroke-width="1.0"/>
    </g>
    <g id="shape2" transform="matrix(1.0, 0.0, 0.0, 1.0, 21.4, -0.25)">
      <path d="M6.2 15.55 Q6.1 14.05 6.5 12.4 7.3 9.1 9.8 8.3 13.8 7.05 17.8 6.8 16.8 15.15 15.95 16.3 15.05 17.4 8.3 18.9 L6.2 15.55" fill="#000000" fill-rule="evenodd" stroke="none"/>
      <path d="M-0.05 18.9 Q-6.8 17.4 -7.7 16.3 -8.25 15.6 -9.05 11.65 L-9.8 7.9 -7.15 7.65 Q-4.05 7.5 -1.55 8.3 2.45 9.55 2.05 15.55 L-0.05 18.9" fill="#000000" fill-rule="evenodd" stroke="none"/>
      <path d="M18.3 13.85 L18.0 14.15 17.75 14.5 17.45 14.8 17.2 15.15 16.25 16.0 16.05 16.15 15.95 16.3 15.15 16.85 14.95 17.05 14.15 17.55 13.95 17.75 12.9 18.35 10.7 19.35 7.15 20.35 5.9 20.45 2.25 20.4 -0.15 20.05 -2.5 19.4 -4.7 18.45 -6.15 17.55 -7.5 16.5 -8.25 15.7 -9.6 13.95" fill="none" stroke="#333333" stroke-linecap="round" stroke-linejoin="round" stroke-width="0.9500000000000001"/>
      <path d="M23.2 20.55 L20.45 21.3 Q19.35 19.85 19.05 19.9 19.0 21.6 18.7 21.65 11.0 23.05 6.2 23.05 L-4.8 22.4 -11.45 21.55 Q-11.6 19.95 -11.95 19.9 -13.0 21.2 -13.2 21.15 -14.95 20.65 -14.95 20.05 -12.1 15.45 -12.0 14.15 L-11.95 3.05 -6.1 9.6 Q0.55 16.1 4.7 15.55 11.3 14.65 19.45 2.65 L20.65 5.25 20.2 7.5 Q19.6 10.0 19.95 12.55 20.2 14.35 23.2 20.55" fill="#000000" fill-rule="evenodd" stroke="none"/>
      <path d="M8.25 17.05 Q11.75 16.8 13.35 15.65 15.0 14.55 16.25 12.05 16.0 15.4 13.5 16.8 11.0 18.15 8.25 17.05" fill="#878787" fill-rule="evenodd" stroke="none"/>
      <path d="M-0.25 17.05 Q-3.0 18.15 -5.5 16.8 -7.05 15.95 -7.8 13.9 L-8.25 12.05 -7.4 13.45 Q-6.4 14.95 -5.4 15.65 -3.75 16.8 -0.25 17.05" fill="#878787" fill-rule="evenodd" stroke="none"/>
      <path d="M28.45 5.05 Q28.75 6.2 28.55 7.4 26.8 5.85 25.9 5.5 24.5 5.0 24.5 6.05 24.35 7.4 25.4 8.3 L23.45 7.1 Q22.95 7.05 22.55 7.45 L21.9 7.95 20.25 8.35 18.9 1.85 20.05 1.05 Q21.4 0.25 22.5 0.25 24.25 0.25 27.75 1.55 L29.45 2.8 25.45 2.7 24.65 3.1 26.45 3.65 Q28.25 4.35 28.45 5.05" fill="#000000" fill-rule="evenodd" stroke="none"/>
      <path d="M-14.45 1.1 Q-12.7 1.1 -10.85 2.75 L-12.2 9.2 -13.85 8.8 Q-14.55 7.9 -15.4 8.0 -15.8 8.05 -17.35 9.2 -16.25 8.3 -16.45 6.9 -16.45 5.8 -17.85 6.4 -19.0 6.8 -20.5 8.3 -20.7 7.05 -20.4 5.95 -20.2 5.25 -18.4 4.55 -17.45 4.2 -16.6 4.0 L-17.4 3.55 -21.4 3.65 -19.7 2.45 Q-16.2 1.1 -14.45 1.1" fill="#000000" fill-rule="evenodd" stroke="none"/>
      <path d="M18.3 6.35 Q16.9 5.5 16.55 5.5 L13.65 5.5 16.05 3.75 19.3 3.5 18.3 6.35" fill="#000000" fill-rule="evenodd" stroke="none"/>
      <path d="M18.15 4.6 L17.3 3.1 15.8 1.6 18.55 2.0 Q19.9 2.6 19.65 4.25 L18.55 5.1 18.15 4.6" fill="#000000" fill-rule="evenodd" stroke="none"/>
      <path d="M-11.3 4.05 L-8.05 4.3 Q-7.2 4.65 -5.7 6.05 L-8.55 6.05 -10.3 6.9 -11.3 4.05" fill="#000000" fill-rule="evenodd" stroke="none"/>
      <path d="M-9.3 3.65 L-10.55 5.65 -11.7 4.8 Q-11.95 3.15 -10.55 2.55 -9.2 1.9 -7.8 2.15 L-9.3 3.65" fill="#000000" fill-rule="evenodd" stroke="none"/>
      <path d="M-0.3 10.55 L8.45 10.65" fill="none" stroke="#000000" stroke-linecap="round" stroke-linejoin="round" stroke-width="1.0"/>
      <path d="M0.55 13.15 L7.05 13.15" fill="none" stroke="#000000" stroke-linecap="round" stroke-linejoin="round" stroke-width="1.0"/>
    </g>
  </defs>
</svg>
